X: 1665
T: the Silk Handkerchief   #2
R: hornpipe, reel
%S: s:2 b:13(6+7)
B: O'Neill's 1850 #1665
Z: Compacted via repeats and multiple endings [JC]
O: Cronin
M: 2/4
L: 1/16
K: G
d2 \
|: gabg efge | dBge dBGB | (3AAA (AB) AGAB |1,3 cBAB cdef :|2,4 cdef g2 :: d2 | dggf g2(gf) |
| gaba gfed | eaab a2(ag) | agba gfed || dggf g2(gf) | edBg eBGB | (3AAA (AB) AGAB | cdef g2 :|
